raw/symbols/near.svg

<svg width="42" height="42" viewBox="0 0 42 42" fill="none" xmlns="http://www.w3.org/2000/svg">
<circle cx="21" cy="21" r="21" fill="#222222"/>
<path d="M28.0312 10.5245L23.1626 17.7498C22.8259 18.2419 23.4733 18.8375 23.9395 18.4232L28.7305 14.2537C28.8599 14.1501 29.0412 14.2278 29.0412 14.4091V27.4354C29.0412 27.6166 28.8082 27.6943 28.7046 27.5648L14.2022 10.2138C13.736 9.64402 13.0627 9.33325 12.3117 9.33325H11.7937C10.4471 9.33325 9.3335 10.4468 9.3335 11.8194V30.1546C9.3335 31.5271 10.4471 32.6407 11.8196 32.6407C12.6742 32.6407 13.477 32.2004 13.9432 31.4494L18.8119 24.2241C19.1485 23.7321 18.5011 23.1364 18.0349 23.5508L13.244 27.6943C13.1145 27.7979 12.9332 27.7202 12.9332 27.5389V14.5386C12.9332 14.3573 13.1663 14.2796 13.2699 14.4091L27.7723 31.7602C28.2384 32.3299 28.9376 32.6407 29.6628 32.6407H30.1807C31.5533 32.6407 32.6668 31.5271 32.6668 30.1546V11.8194C32.6668 10.4468 31.5533 9.33325 30.1807 9.33325C29.3002 9.33325 28.4974 9.7735 28.0312 10.5245Z" fill="#F3F3F3"/>
</svg>

<svg xmlns="http://www.w3.org/2000/svg" width="42" height="42" fill="none"><circle cx="21" cy="21" r="21" fill="#222"/><path fill="#F3F3F3" d="m28.031 10.524-4.868 7.226c-.337.492.31 1.087.776.673l4.791-4.17c.13-.103.311-.025.311.156v13.026c0 .182-.233.26-.336.13L14.202 10.214a2.396 2.396 0 0 0-1.89-.88h-.518c-1.347 0-2.46 1.113-2.46 2.485v18.336a2.487 2.487 0 0 0 4.61 1.294l4.868-7.225c.336-.492-.31-1.088-.777-.673l-4.791 4.143c-.13.104-.31.026-.31-.155v-13c0-.182.232-.26.336-.13L27.772 31.76c.466.57 1.166.88 1.89.88h.519a2.487 2.487 0 0 0 2.486-2.485V11.819a2.487 2.487 0 0 0-2.486-2.486c-.88 0-1.684.44-2.15 1.191Z"/></svg>
